X:1
T:Céad Míle Fáilte Romhat
C:Traditional
Z:abc-transcription www.GodSongs.net ,
M:4/4
L:1/4
K:Gmaj
"G"B2 BB | "Em"B A A A | "D"A2 GG | c2 "G"B2 |
G2 AB | "C"c d e c | "G"B2 "D"A2 | d4 |
"G"d2 BG | "C"E E D D | "Am"c2 c2 | "G"B3 G |
"C"e e "D"d d | "G"B B G2 | "C"E2 D D|"D"A2"G"G2|]
